X: 20657
T: John Stewart
R: reel
M: 4/4
K: Gminor
DGGA BdcB|AF ~F2 dFcF|DGGA (3Bcd fd|cAfc AGGF|
DGGA BdcB|AF ~F2 dFcF|DGGA (3Bcd fd|cAfc AGG2||
dgga b2 ag|fcac gcfc|dgga b2 ag|fdcA BG G2|
Ggga b2 ag|fcfg agfa|g2 fg dgcg|AFcA G3z||

